X:363
T:Cuckolds all a Row
M:6/8
L:1/8
K:G
a2a a2g | f2g a2d | e2e fef | g6 |
a2a a2g | f2g a2d | e2e fef | g3-g2B :||
cdc BAB | A2A fef | g2d ed2 | B3 GAB |
cdc BAB | A2A fef | g2d ed2 | B3 G3 :||
